app/assets/svg/icon-full-content.svg

<svg xmlns="http://www.w3.org/2000/svg" width="14" height="16"><g data-name="Layer 2"><path d="M0 0h9v2H0zm11 0h5v2h-5zM0 12h9v2H0zm11 0h5v2h-5zM0 4h6v2H0zm8 0h8v2H8zM0 8h16v2H0z" data-name="Layer 1"/></g></svg>

<svg id="8f8ab27e-3bbf-43b4-b804-fdaa77e56f7d" data-name="Layer 1" xmlns="http://www.w3.org/2000/svg" viewBox="0 0 16 14"><title>Artboard 1</title><path d="M0,0H9V2H0ZM11,0h5V2H11ZM0,12H9v2H0Zm11,0h5v2H11ZM0,4H6V6H0ZM8,4h8V6H8ZM0,8H16v2H0Z"/></svg>
